images/50191681.svg

<?xml version="1.0" encoding="UTF-8"?>
<svg xmlns="http://www.w3.org/2000/svg" xmlns:xlink="http://www.w3.org/1999/xlink" width="300pt" height="300pt" viewBox="0 0 300 300" version="1.1">
<defs>
<g>
<symbol overflow="visible" id="glyph0-0">
<path style="stroke:none;" d="M 0.546875 1.9375 L 0.546875 -7.75 L 6.046875 -7.75 L 6.046875 1.9375 Z M 1.171875 1.328125 L 5.4375 1.328125 L 5.4375 -7.140625 L 1.171875 -7.140625 Z M 1.171875 1.328125 "/>
</symbol>
<symbol overflow="visible" id="glyph0-1">
<path style="stroke:none;" d="M 1.078125 -8.015625 L 5.6875 -8.015625 L 5.6875 -7.109375 L 2.171875 -7.109375 L 2.171875 -4.75 L 5.34375 -4.75 L 5.34375 -3.828125 L 2.171875 -3.828125 L 2.171875 0 L 1.078125 0 Z M 1.078125 -8.015625 "/>
</symbol>
<symbol overflow="visible" id="glyph0-2">
<path style="stroke:none;" d="M 1.078125 -8.015625 L 2.546875 -8.015625 L 6.09375 -1.3125 L 6.09375 -8.015625 L 7.15625 -8.015625 L 7.15625 0 L 5.6875 0 L 2.125 -6.703125 L 2.125 0 L 1.078125 0 Z M 1.078125 -8.015625 "/>
</symbol>
<symbol overflow="visible" id="glyph0-3">
<path style="stroke:none;" d="M 1.078125 -8.015625 L 2.171875 -8.015625 L 2.171875 -4.734375 L 6.109375 -4.734375 L 6.109375 -8.015625 L 7.1875 -8.015625 L 7.1875 0 L 6.109375 0 L 6.109375 -3.8125 L 2.171875 -3.8125 L 2.171875 0 L 1.078125 0 Z M 1.078125 -8.015625 "/>
</symbol>
<symbol overflow="visible" id="glyph1-0">
<path style="stroke:none;" d="M 0.453125 1.59375 L 0.453125 -6.34375 L 4.953125 -6.34375 L 4.953125 1.59375 Z M 0.953125 1.09375 L 4.453125 1.09375 L 4.453125 -5.84375 L 0.953125 -5.84375 Z M 0.953125 1.09375 "/>
</symbol>
<symbol overflow="visible" id="glyph1-1">
<path style="stroke:none;" d="M 4.140625 -5.640625 L 4.140625 -3.1875 L 6.59375 -3.1875 L 6.59375 -2.453125 L 4.140625 -2.453125 L 4.140625 0 L 3.40625 0 L 3.40625 -2.453125 L 0.953125 -2.453125 L 0.953125 -3.1875 L 3.40625 -3.1875 L 3.40625 -5.640625 Z M 4.140625 -5.640625 "/>
</symbol>
</g>
</defs>
<g id="surface21973">
<rect x="0" y="0" width="300" height="300" style="fill:rgb(100%,100%,100%);fill-opacity:1;stroke:none;"/>
<path style="fill:none;stroke-width:1.2;stroke-linecap:butt;stroke-linejoin:miter;stroke:rgb(20%,80%,80%);stroke-opacity:1;stroke-miterlimit:10;" d="M 224.070312 227.894531 L 211.730469 223.027344 "/>
<path style="fill:none;stroke-width:1.2;stroke-linecap:butt;stroke-linejoin:miter;stroke:rgb(0%,0%,0%);stroke-opacity:1;stroke-miterlimit:10;" d="M 211.730469 223.027344 L 199.386719 218.160156 "/>
<path style=" stroke:none;fill-rule:nonzero;fill:rgb(100%,100%,100%);fill-opacity:1;" d="M 221.070312 221.394531 L 228.070312 221.394531 L 228.070312 234.394531 L 221.070312 234.394531 Z M 221.070312 221.394531 "/>
<g style="fill:rgb(20%,80%,80%);fill-opacity:1;">
  <use xlink:href="#glyph0-1" x="221.070312" y="231.295898"/>
</g>
<path style="fill:none;stroke-width:1.2;stroke-linecap:butt;stroke-linejoin:miter;stroke:rgb(0%,0%,0%);stroke-opacity:1;stroke-miterlimit:10;" d="M 199.386719 218.160156 L 178.617188 234.667969 "/>
<path style="fill:none;stroke-width:1.2;stroke-linecap:butt;stroke-linejoin:miter;stroke:rgb(0%,0%,0%);stroke-opacity:1;stroke-miterlimit:10;" d="M 193.425781 214.921875 L 176.808594 228.128906 "/>
<path style="fill:none;stroke-width:1.2;stroke-linecap:butt;stroke-linejoin:miter;stroke:rgb(0%,0%,0%);stroke-opacity:1;stroke-miterlimit:10;" d="M 195.476562 191.917969 L 199.386719 218.160156 "/>
<path style="fill:none;stroke-width:1.2;stroke-linecap:butt;stroke-linejoin:miter;stroke:rgb(0%,0%,0%);stroke-opacity:1;stroke-miterlimit:10;" d="M 178.617188 234.667969 L 153.9375 224.933594 "/>
<path style="fill:none;stroke-width:1.2;stroke-linecap:butt;stroke-linejoin:miter;stroke:rgb(0%,0%,0%);stroke-opacity:1;stroke-miterlimit:10;" d="M 153.9375 224.933594 L 150.027344 198.691406 "/>
<path style="fill:none;stroke-width:1.2;stroke-linecap:butt;stroke-linejoin:miter;stroke:rgb(0%,0%,0%);stroke-opacity:1;stroke-miterlimit:10;" d="M 159.71875 221.386719 L 156.589844 200.394531 "/>
<path style="fill:none;stroke-width:1.2;stroke-linecap:butt;stroke-linejoin:miter;stroke:rgb(0%,0%,0%);stroke-opacity:1;stroke-miterlimit:10;" d="M 150.027344 198.691406 L 170.796875 182.183594 "/>
<path style="fill:none;stroke-width:1.2;stroke-linecap:butt;stroke-linejoin:miter;stroke:rgb(0%,0%,0%);stroke-opacity:1;stroke-miterlimit:10;" d="M 150.027344 198.691406 L 125.34375 188.957031 "/>
<path style="fill:none;stroke-width:1.2;stroke-linecap:butt;stroke-linejoin:miter;stroke:rgb(0%,0%,0%);stroke-opacity:1;stroke-miterlimit:10;" d="M 170.796875 182.183594 L 195.476562 191.917969 "/>
<path style="fill:none;stroke-width:1.2;stroke-linecap:butt;stroke-linejoin:miter;stroke:rgb(0%,0%,0%);stroke-opacity:1;stroke-miterlimit:10;" d="M 170.976562 188.964844 L 190.71875 196.753906 "/>
<path style="fill:none;stroke-width:1.2;stroke-linecap:butt;stroke-linejoin:miter;stroke:rgb(0%,0%,0%);stroke-opacity:1;stroke-miterlimit:10;" d="M 125.34375 188.957031 L 114.152344 196.078125 "/>
<path style="fill:none;stroke-width:1.2;stroke-linecap:butt;stroke-linejoin:miter;stroke:rgb(0%,0%,100%);stroke-opacity:1;stroke-miterlimit:10;" d="M 114.152344 196.078125 L 102.960938 203.203125 "/>
<path style="fill:none;stroke-width:1.2;stroke-linecap:butt;stroke-linejoin:miter;stroke:rgb(0%,0%,0%);stroke-opacity:1;stroke-miterlimit:10;" d="M 118.714844 163.265625 L 125.34375 188.957031 "/>
<path style="fill:none;stroke-width:1.2;stroke-linecap:butt;stroke-linejoin:miter;stroke:rgb(0%,0%,0%);stroke-opacity:1;stroke-miterlimit:10;" d="M 113.332031 167.398438 L 118.636719 187.949219 "/>
<path style="fill:none;stroke-width:1.2;stroke-linecap:butt;stroke-linejoin:miter;stroke:rgb(0%,0%,100%);stroke-opacity:1;stroke-miterlimit:10;" d="M 102.960938 203.203125 L 92.730469 194.757812 "/>
<path style="fill:none;stroke-width:1.2;stroke-linecap:butt;stroke-linejoin:miter;stroke:rgb(0%,0%,0%);stroke-opacity:1;stroke-miterlimit:10;" d="M 92.730469 194.757812 L 82.496094 186.316406 "/>
<path style="fill:none;stroke-width:1.2;stroke-linecap:butt;stroke-linejoin:miter;stroke:rgb(0%,0%,100%);stroke-opacity:1;stroke-miterlimit:10;" d="M 104.890625 196.699219 L 96.703125 189.945312 "/>
<path style="fill:none;stroke-width:1.2;stroke-linecap:butt;stroke-linejoin:miter;stroke:rgb(0%,0%,0%);stroke-opacity:1;stroke-miterlimit:10;" d="M 96.703125 189.945312 L 88.515625 183.191406 "/>
<path style=" stroke:none;fill-rule:nonzero;fill:rgb(100%,100%,100%);fill-opacity:1;" d="M 98.960938 196.703125 L 106.960938 196.703125 L 106.960938 209.703125 L 98.960938 209.703125 Z M 98.960938 196.703125 "/>
<g style="fill:rgb(0%,0%,100%);fill-opacity:1;">
  <use xlink:href="#glyph0-2" x="98.960938" y="206.604492"/>
</g>
<path style="fill:none;stroke-width:1.2;stroke-linecap:butt;stroke-linejoin:miter;stroke:rgb(0%,0%,0%);stroke-opacity:1;stroke-miterlimit:10;" d="M 82.496094 186.316406 L 87.363281 173.976562 "/>
<path style="fill:none;stroke-width:1.2;stroke-linecap:butt;stroke-linejoin:miter;stroke:rgb(0%,0%,100%);stroke-opacity:1;stroke-miterlimit:10;" d="M 87.363281 173.976562 L 92.230469 161.636719 "/>
<path style="fill:none;stroke-width:1.2;stroke-linecap:butt;stroke-linejoin:miter;stroke:rgb(0%,0%,100%);stroke-opacity:1;stroke-miterlimit:10;" d="M 92.230469 161.636719 L 105.472656 162.453125 "/>
<path style="fill:none;stroke-width:1.2;stroke-linecap:butt;stroke-linejoin:miter;stroke:rgb(0%,0%,0%);stroke-opacity:1;stroke-miterlimit:10;" d="M 105.472656 162.453125 L 118.714844 163.265625 "/>
<path style="fill:none;stroke-width:1.2;stroke-linecap:butt;stroke-linejoin:miter;stroke:rgb(0%,0%,100%);stroke-opacity:1;stroke-miterlimit:10;" d="M 92.230469 161.636719 L 85.109375 150.445312 "/>
<path style="fill:none;stroke-width:1.2;stroke-linecap:butt;stroke-linejoin:miter;stroke:rgb(0%,0%,0%);stroke-opacity:1;stroke-miterlimit:10;" d="M 85.109375 150.445312 L 77.988281 139.253906 "/>
<path style=" stroke:none;fill-rule:nonzero;fill:rgb(100%,100%,100%);fill-opacity:1;" d="M 88.230469 155.136719 L 96.230469 155.136719 L 96.230469 168.136719 L 88.230469 168.136719 Z M 88.230469 155.136719 "/>
<g style="fill:rgb(0%,0%,100%);fill-opacity:1;">
  <use xlink:href="#glyph0-2" x="88.230469" y="165.038086"/>
</g>
<path style="fill:none;stroke-width:1.2;stroke-linecap:butt;stroke-linejoin:miter;stroke:rgb(0%,0%,0%);stroke-opacity:1;stroke-miterlimit:10;" d="M 118.714844 163.265625 L 135.597656 142.800781 "/>
<path style="fill:none;stroke-width:1.2;stroke-linecap:butt;stroke-linejoin:miter;stroke:rgb(0%,0%,0%);stroke-opacity:1;stroke-miterlimit:10;" d="M 135.597656 142.800781 L 148.679688 144.996094 "/>
<path style="fill:none;stroke-width:1.2;stroke-linecap:butt;stroke-linejoin:miter;stroke:rgb(0%,0%,100%);stroke-opacity:1;stroke-miterlimit:10;" d="M 148.679688 144.996094 L 161.765625 147.191406 "/>
<path style="fill:none;stroke-width:1.2;stroke-linecap:butt;stroke-linejoin:miter;stroke:rgb(0%,0%,0%);stroke-opacity:1;stroke-miterlimit:10;" d="M 139.246094 137.085938 L 149.714844 138.839844 "/>
<path style="fill:none;stroke-width:1.2;stroke-linecap:butt;stroke-linejoin:miter;stroke:rgb(0%,0%,100%);stroke-opacity:1;stroke-miterlimit:10;" d="M 149.714844 138.839844 L 160.179688 140.597656 "/>
<path style="fill:none;stroke-width:1.2;stroke-linecap:butt;stroke-linejoin:miter;stroke:rgb(0%,0%,0%);stroke-opacity:1;stroke-miterlimit:10;" d="M 126.316406 117.945312 L 135.597656 142.800781 "/>
<path style="fill:none;stroke-width:1.2;stroke-linecap:butt;stroke-linejoin:miter;stroke:rgb(0%,0%,100%);stroke-opacity:1;stroke-miterlimit:10;" d="M 161.765625 147.191406 L 170.207031 136.960938 "/>
<path style="fill:none;stroke-width:1.2;stroke-linecap:butt;stroke-linejoin:miter;stroke:rgb(0%,0%,0%);stroke-opacity:1;stroke-miterlimit:10;" d="M 170.207031 136.960938 L 178.648438 126.726562 "/>
<path style=" stroke:none;fill-rule:nonzero;fill:rgb(100%,100%,100%);fill-opacity:1;" d="M 157.765625 140.691406 L 165.765625 140.691406 L 165.765625 153.691406 L 157.765625 153.691406 Z M 157.765625 140.691406 "/>
<g style="fill:rgb(0%,0%,100%);fill-opacity:1;">
  <use xlink:href="#glyph0-2" x="157.765625" y="150.592773"/>
</g>
<path style="fill:none;stroke-width:1.2;stroke-linecap:butt;stroke-linejoin:miter;stroke:rgb(0%,0%,0%);stroke-opacity:1;stroke-miterlimit:10;" d="M 178.648438 126.726562 L 174.007812 114.300781 "/>
<path style="fill:none;stroke-width:1.2;stroke-linecap:butt;stroke-linejoin:miter;stroke:rgb(0%,0%,100%);stroke-opacity:1;stroke-miterlimit:10;" d="M 174.007812 114.300781 L 169.367188 101.871094 "/>
<path style="fill:none;stroke-width:1.2;stroke-linecap:butt;stroke-linejoin:miter;stroke:rgb(0%,0%,0%);stroke-opacity:1;stroke-miterlimit:10;" d="M 171.871094 126.425781 L 168.160156 116.484375 "/>
<path style="fill:none;stroke-width:1.2;stroke-linecap:butt;stroke-linejoin:miter;stroke:rgb(0%,0%,100%);stroke-opacity:1;stroke-miterlimit:10;" d="M 168.160156 116.484375 L 164.449219 106.542969 "/>
<path style="fill:none;stroke-width:1.2;stroke-linecap:butt;stroke-linejoin:miter;stroke:rgb(0%,0%,0%);stroke-opacity:1;stroke-miterlimit:10;" d="M 178.648438 126.726562 L 191.730469 128.921875 "/>
<path style="fill:none;stroke-width:1.2;stroke-linecap:butt;stroke-linejoin:miter;stroke:rgb(0%,0%,100%);stroke-opacity:1;stroke-miterlimit:10;" d="M 191.730469 128.921875 L 204.816406 131.117188 "/>
<path style="fill:none;stroke-width:1.2;stroke-linecap:butt;stroke-linejoin:miter;stroke:rgb(0%,0%,100%);stroke-opacity:1;stroke-miterlimit:10;" d="M 169.367188 101.871094 L 156.285156 99.675781 "/>
<path style="fill:none;stroke-width:1.2;stroke-linecap:butt;stroke-linejoin:miter;stroke:rgb(0%,0%,0%);stroke-opacity:1;stroke-miterlimit:10;" d="M 156.285156 99.675781 L 143.203125 97.480469 "/>
<path style=" stroke:none;fill-rule:nonzero;fill:rgb(100%,100%,100%);fill-opacity:1;" d="M 165.367188 95.371094 L 173.367188 95.371094 L 173.367188 108.371094 L 165.367188 108.371094 Z M 165.367188 95.371094 "/>
<g style="fill:rgb(0%,0%,100%);fill-opacity:1;">
  <use xlink:href="#glyph0-2" x="165.367188" y="105.272461"/>
</g>
<path style="fill:none;stroke-width:1.2;stroke-linecap:butt;stroke-linejoin:miter;stroke:rgb(0%,0%,0%);stroke-opacity:1;stroke-miterlimit:10;" d="M 143.203125 97.480469 L 126.316406 117.945312 "/>
<path style="fill:none;stroke-width:1.2;stroke-linecap:butt;stroke-linejoin:miter;stroke:rgb(0%,0%,0%);stroke-opacity:1;stroke-miterlimit:10;" d="M 146.328125 103.5 L 132.820312 119.875 "/>
<path style="fill:none;stroke-width:1.2;stroke-linecap:butt;stroke-linejoin:miter;stroke:rgb(0%,0%,100%);stroke-opacity:1;stroke-miterlimit:10;" d="M 204.816406 131.117188 L 213.257812 120.886719 "/>
<path style="fill:none;stroke-width:1.2;stroke-linecap:butt;stroke-linejoin:miter;stroke:rgb(0%,0%,0%);stroke-opacity:1;stroke-miterlimit:10;" d="M 213.257812 120.886719 L 221.699219 110.652344 "/>
<path style=" stroke:none;fill-rule:nonzero;fill:rgb(100%,100%,100%);fill-opacity:1;" d="M 196.816406 124.617188 L 213.816406 124.617188 L 213.816406 137.617188 L 196.816406 137.617188 Z M 196.816406 124.617188 "/>
<g style="fill:rgb(0%,0%,100%);fill-opacity:1;">
  <use xlink:href="#glyph0-2" x="196.816406" y="134.518555"/>
  <use xlink:href="#glyph0-3" x="204.799805" y="134.518555"/>
</g>
<path style="fill:none;stroke-width:1.2;stroke-linecap:butt;stroke-linejoin:miter;stroke:rgb(0%,0%,0%);stroke-opacity:1;stroke-miterlimit:10;" d="M 221.699219 110.652344 L 247.863281 115.042969 "/>
<path style="fill:none;stroke-width:1.2;stroke-linecap:butt;stroke-linejoin:miter;stroke:rgb(0%,0%,0%);stroke-opacity:1;stroke-miterlimit:10;" d="M 225.347656 104.933594 L 246.28125 108.449219 "/>
<path style="fill:none;stroke-width:1.2;stroke-linecap:butt;stroke-linejoin:miter;stroke:rgb(0%,0%,0%);stroke-opacity:1;stroke-miterlimit:10;" d="M 212.417969 85.796875 L 221.699219 110.652344 "/>
<path style="fill:none;stroke-width:1.2;stroke-linecap:butt;stroke-linejoin:miter;stroke:rgb(0%,0%,0%);stroke-opacity:1;stroke-miterlimit:10;" d="M 247.863281 115.042969 L 264.75 94.578125 "/>
<path style="fill:none;stroke-width:1.2;stroke-linecap:butt;stroke-linejoin:miter;stroke:rgb(0%,0%,0%);stroke-opacity:1;stroke-miterlimit:10;" d="M 264.75 94.578125 L 255.46875 69.722656 "/>
<path style="fill:none;stroke-width:1.2;stroke-linecap:butt;stroke-linejoin:miter;stroke:rgb(0%,0%,0%);stroke-opacity:1;stroke-miterlimit:10;" d="M 257.972656 94.277344 L 250.550781 74.390625 "/>
<path style="fill:none;stroke-width:1.2;stroke-linecap:butt;stroke-linejoin:miter;stroke:rgb(0%,0%,0%);stroke-opacity:1;stroke-miterlimit:10;" d="M 255.46875 69.722656 L 229.304688 65.332031 "/>
<path style="fill:none;stroke-width:1.2;stroke-linecap:butt;stroke-linejoin:miter;stroke:rgb(0%,0%,0%);stroke-opacity:1;stroke-miterlimit:10;" d="M 229.304688 65.332031 L 212.417969 85.796875 "/>
<path style="fill:none;stroke-width:1.2;stroke-linecap:butt;stroke-linejoin:miter;stroke:rgb(0%,0%,0%);stroke-opacity:1;stroke-miterlimit:10;" d="M 232.429688 71.351562 L 218.921875 87.722656 "/>
<path style="fill:none;stroke-width:1.2;stroke-linecap:butt;stroke-linejoin:miter;stroke:rgb(0%,0%,0%);stroke-opacity:1;stroke-miterlimit:10;" d="M 77.988281 139.253906 L 90.246094 115.726562 "/>
<path style="fill:none;stroke-width:1.2;stroke-linecap:butt;stroke-linejoin:miter;stroke:rgb(0%,0%,0%);stroke-opacity:1;stroke-miterlimit:10;" d="M 51.480469 140.398438 L 77.988281 139.253906 "/>
<path style="fill:none;stroke-width:1.2;stroke-linecap:butt;stroke-linejoin:miter;stroke:rgb(0%,0%,0%);stroke-opacity:1;stroke-miterlimit:10;" d="M 90.246094 115.726562 L 76.003906 93.34375 "/>
<path style="fill:none;stroke-width:1.2;stroke-linecap:butt;stroke-linejoin:miter;stroke:rgb(0%,0%,0%);stroke-opacity:1;stroke-miterlimit:10;" d="M 76.003906 93.34375 L 62.75 93.914062 "/>
<path style="fill:none;stroke-width:1.2;stroke-linecap:butt;stroke-linejoin:miter;stroke:rgb(0%,0%,100%);stroke-opacity:1;stroke-miterlimit:10;" d="M 62.75 93.914062 L 49.496094 94.488281 "/>
<path style="fill:none;stroke-width:1.2;stroke-linecap:butt;stroke-linejoin:miter;stroke:rgb(0%,0%,100%);stroke-opacity:1;stroke-miterlimit:10;" d="M 49.496094 94.488281 L 43.363281 106.253906 "/>
<path style="fill:none;stroke-width:1.2;stroke-linecap:butt;stroke-linejoin:miter;stroke:rgb(0%,0%,0%);stroke-opacity:1;stroke-miterlimit:10;" d="M 43.363281 106.253906 L 37.234375 118.015625 "/>
<path style="fill:none;stroke-width:1.2;stroke-linecap:butt;stroke-linejoin:miter;stroke:rgb(0%,0%,100%);stroke-opacity:1;stroke-miterlimit:10;" d="M 49.496094 94.488281 L 42.371094 83.296875 "/>
<path style="fill:none;stroke-width:1.2;stroke-linecap:butt;stroke-linejoin:miter;stroke:rgb(0%,0%,0%);stroke-opacity:1;stroke-miterlimit:10;" d="M 42.371094 83.296875 L 35.25 72.105469 "/>
<path style=" stroke:none;fill-rule:nonzero;fill:rgb(100%,100%,100%);fill-opacity:1;" d="M 37.496094 86.488281 L 61.496094 86.488281 L 61.496094 102.488281 L 37.496094 102.488281 Z M 37.496094 86.488281 "/>
<g style="fill:rgb(0%,0%,100%);fill-opacity:1;">
  <use xlink:href="#glyph0-2" x="37.496094" y="99.621094"/>
  <use xlink:href="#glyph0-3" x="45.479492" y="99.621094"/>
</g>
<g style="fill:rgb(0%,0%,100%);fill-opacity:1;">
  <use xlink:href="#glyph1-1" x="53.503906" y="94.738281"/>
</g>
<path style="fill:none;stroke-width:1.2;stroke-linecap:butt;stroke-linejoin:miter;stroke:rgb(0%,0%,0%);stroke-opacity:1;stroke-miterlimit:10;" d="M 37.234375 118.015625 L 51.480469 140.398438 "/>
</g>
</svg>

<svg xmlns="http://www.w3.org/2000/svg" xmlns:xlink="http://www.w3.org/1999/xlink" width="300pt" height="300pt" viewBox="0 0 300 300"><defs><symbol overflow="visible"><path d="M.547 1.938V-7.75h5.5v9.688zm.625-.61h4.266v-8.47H1.171zm0 0"/></symbol><symbol overflow="visible" id="a"><path d="M1.078-8.016h4.61v.907H2.171v2.36h3.172v.922H2.172V0H1.078zm0 0"/></symbol><symbol overflow="visible" id="b"><path d="M1.078-8.016h1.47l3.546 6.704v-6.704h1.062V0H5.688L2.124-6.703V0H1.078zm0 0"/></symbol><symbol overflow="visible" id="c"><path d="M1.078-8.016h1.094v3.282H6.11v-3.282h1.077V0H6.11v-3.813H2.17V0H1.078zm0 0"/></symbol><symbol overflow="visible"><path d="M.453 1.594v-7.938h4.5v7.938zm.5-.5h3.5v-6.938h-3.5zm0 0"/></symbol><symbol overflow="visible" id="d"><path d="M4.14-5.64v2.452h2.454v.735H4.14V0h-.734v-2.453H.953v-.735h2.453V-5.64zm0 0"/></symbol></defs><g><path fill="#fff" d="M0 0h300v300H0z"/><path d="M224.07 227.895l-12.34-4.868" stroke-width="1.2" stroke="#3cc" stroke-miterlimit="10" fill="none"/><path d="M211.73 223.027l-12.343-4.867" stroke-width="1.2" stroke="#000" stroke-miterlimit="10" fill="none"/><path d="M221.07 221.395h7v13h-7zm0 0" fill="#fff"/><use xlink:href="#a" x="221.07" y="231.296" fill="#3cc"/><path d="M199.387 218.16l-20.77 16.508M193.426 214.922L176.81 228.13M195.477 191.918l3.91 26.242M178.617 234.668l-24.68-9.734M153.938 224.934l-3.91-26.243M159.72 221.387l-3.13-20.992M150.027 198.69l20.77-16.506M150.027 198.69l-24.683-9.733M170.797 182.184l24.68 9.734M170.977 188.965l19.742 7.79M125.344 188.957l-11.192 7.12" stroke-width="1.2" stroke="#000" stroke-miterlimit="10" fill="none"/><path d="M114.152 196.078l-11.19 7.125" stroke-width="1.2" stroke="#00f" stroke-miterlimit="10" fill="none"/><path d="M118.715 163.266l6.63 25.69M113.332 167.398l5.305 20.55" stroke-width="1.2" stroke="#000" stroke-miterlimit="10" fill="none"/><path d="M102.96 203.203l-10.23-8.445" stroke-width="1.2" stroke="#00f" stroke-miterlimit="10" fill="none"/><path d="M92.73 194.758l-10.234-8.442" stroke-width="1.2" stroke="#000" stroke-miterlimit="10" fill="none"/><path d="M104.89 196.7l-8.187-6.755" stroke-width="1.2" stroke="#00f" stroke-miterlimit="10" fill="none"/><path d="M96.703 189.945l-8.187-6.754" stroke-width="1.2" stroke="#000" stroke-miterlimit="10" fill="none"/><path d="M98.96 196.703h8v13h-8zm0 0" fill="#fff"/><use xlink:href="#b" x="98.961" y="206.604" fill="#00f"/><path d="M82.496 186.316l4.867-12.34" stroke-width="1.2" stroke="#000" stroke-miterlimit="10" fill="none"/><path d="M87.363 173.977l4.867-12.34M92.23 161.637l13.243.816" stroke-width="1.2" stroke="#00f" stroke-miterlimit="10" fill="none"/><path d="M105.473 162.453l13.242.813" stroke-width="1.2" stroke="#000" stroke-miterlimit="10" fill="none"/><path d="M92.23 161.637l-7.12-11.192" stroke-width="1.2" stroke="#00f" stroke-miterlimit="10" fill="none"/><path d="M85.11 150.445l-7.122-11.19" stroke-width="1.2" stroke="#000" stroke-miterlimit="10" fill="none"/><path d="M88.23 155.137h8v13h-8zm0 0" fill="#fff"/><use xlink:href="#b" x="88.23" y="165.038" fill="#00f"/><path d="M118.715 163.266l16.883-20.465M135.598 142.8l13.082 2.196" stroke-width="1.2" stroke="#000" stroke-miterlimit="10" fill="none"/><path d="M148.68 144.996l13.086 2.195" stroke-width="1.2" stroke="#00f" stroke-miterlimit="10" fill="none"/><path d="M139.246 137.086l10.47 1.754" stroke-width="1.2" stroke="#000" stroke-miterlimit="10" fill="none"/><path d="M149.715 138.84l10.465 1.758" stroke-width="1.2" stroke="#00f" stroke-miterlimit="10" fill="none"/><path d="M126.316 117.945l9.282 24.856" stroke-width="1.2" stroke="#000" stroke-miterlimit="10" fill="none"/><path d="M161.766 147.19l8.44-10.23" stroke-width="1.2" stroke="#00f" stroke-miterlimit="10" fill="none"/><path d="M170.207 136.96l8.44-10.233" stroke-width="1.2" stroke="#000" stroke-miterlimit="10" fill="none"/><path d="M157.766 140.69h8v13h-8zm0 0" fill="#fff"/><use xlink:href="#b" x="157.766" y="150.593" fill="#00f"/><path d="M178.648 126.727l-4.64-12.426" stroke-width="1.2" stroke="#000" stroke-miterlimit="10" fill="none"/><path d="M174.008 114.3l-4.64-12.43" stroke-width="1.2" stroke="#00f" stroke-miterlimit="10" fill="none"/><path d="M171.87 126.426l-3.71-9.942" stroke-width="1.2" stroke="#000" stroke-miterlimit="10" fill="none"/><path d="M168.16 116.484l-3.71-9.94" stroke-width="1.2" stroke="#00f" stroke-miterlimit="10" fill="none"/><path d="M178.648 126.727l13.082 2.195" stroke-width="1.2" stroke="#000" stroke-miterlimit="10" fill="none"/><path d="M191.73 128.922l13.086 2.195M169.367 101.87l-13.082-2.194" stroke-width="1.2" stroke="#00f" stroke-miterlimit="10" fill="none"/><path d="M156.285 99.676l-13.082-2.196" stroke-width="1.2" stroke="#000" stroke-miterlimit="10" fill="none"/><path d="M165.367 95.37h8v13h-8zm0 0" fill="#fff"/><use xlink:href="#b" x="165.367" y="105.272" fill="#00f"/><path d="M143.203 97.48l-16.887 20.465M146.328 103.5l-13.508 16.375" stroke-width="1.2" stroke="#000" stroke-miterlimit="10" fill="none"/><path d="M204.816 131.117l8.442-10.23" stroke-width="1.2" stroke="#00f" stroke-miterlimit="10" fill="none"/><path d="M213.258 120.887l8.44-10.235" stroke-width="1.2" stroke="#000" stroke-miterlimit="10" fill="none"/><path d="M196.816 124.617h17v13h-17zm0 0" fill="#fff"/><g fill="#00f"><use xlink:href="#b" x="196.816" y="134.519"/><use xlink:href="#c" x="204.8" y="134.519"/></g><path d="M221.7 110.652l26.163 4.39M225.348 104.934l20.933 3.515M212.418 85.797l9.28 24.855M247.863 115.043l16.887-20.465M264.75 94.578l-9.28-24.855M257.973 94.277L250.55 74.39M255.47 69.723l-26.165-4.39M229.305 65.332l-16.887 20.465M232.43 71.352l-13.508 16.37M77.988 139.254l12.258-23.527M51.48 140.398l26.508-1.144M90.246 115.727L76.004 93.344M76.004 93.344l-13.254.57" stroke-width="1.2" stroke="#000" stroke-miterlimit="10" fill="none"/><path d="M62.75 93.914l-13.254.574M49.496 94.488l-6.133 11.766" stroke-width="1.2" stroke="#00f" stroke-miterlimit="10" fill="none"/><path d="M43.363 106.254l-6.13 11.762" stroke-width="1.2" stroke="#000" stroke-miterlimit="10" fill="none"/><path d="M49.496 94.488l-7.125-11.19" stroke-width="1.2" stroke="#00f" stroke-miterlimit="10" fill="none"/><path d="M42.37 83.297l-7.12-11.192" stroke-width="1.2" stroke="#000" stroke-miterlimit="10" fill="none"/><path d="M37.496 86.488h24v16h-24zm0 0" fill="#fff"/><g fill="#00f"><use xlink:href="#b" x="37.496" y="99.621"/><use xlink:href="#c" x="45.479" y="99.621"/></g><use xlink:href="#d" x="53.504" y="94.738" fill="#00f"/><path d="M37.234 118.016l14.246 22.382" stroke-width="1.2" stroke="#000" stroke-miterlimit="10" fill="none"/></g></svg>
